static/img/logo.svg

<svg xmlns="http://www.w3.org/2000/svg" width="289" height="30" fill="none" viewBox="0 0 289 30"><g clip-path="url(#clip0_1_60)"><path fill="url(#paint0_linear_1_60)" fill-rule="evenodd" d="M47.2687 26.9844C47.2687 26.9844 42.1454 26.7118 39.4796 24.0912C38.1355 22.7726 37.545 20.319 37.545 20.319H42.8315C42.8315 20.319 43.9113 21.237 45.261 21.5597C46.6951 21.8991 48.4441 21.8991 48.4441 21.8991L47.2687 26.99V26.9844Z" clip-rule="evenodd"/><path fill="url(#paint1_linear_1_60)" fill-rule="evenodd" d="M23.3447 25.8105L19.0368 3.91135C18.8288 2.77633 19.0987 0.912459 21.4832 0.784492C22.7992 0.712162 24.6776 1.25185 25.3075 4.3175V4.33976L29.6885 26.5894C28.3837 27.3349 27.2365 27.6076 26.2242 27.474C25.1725 27.3349 24.2221 26.7563 23.3504 25.816L23.3447 25.8105Z" clip-rule="evenodd"/><path fill="url(#paint2_linear_1_60)" fill-rule="evenodd" d="M37.2582 18.8668L37.1851 18.5052L37.0164 17.6428L36.2684 13.8427H48.4441V18.8668H37.2582Z" clip-rule="evenodd"/><path fill="url(#paint3_linear_1_60)" fill-rule="evenodd" d="M21.8488 25.7826C20.544 26.5282 19.3968 26.8008 18.3845 26.6673C17.3328 26.5282 16.3824 25.9495 15.5107 25.0093L14.0541 17.6038L13.8854 16.7414L12.8731 11.6228L12.6087 10.2707L12.4906 9.68099C12.4906 9.68099 11.872 5.92542 11.4952 4.71808C11.2196 3.82787 10.6741 3.27705 10.1117 3.06006H10.1005L10.0949 3.0545H10.0836L10.078 3.04894H10.0667L10.0611 3.04337H10.0499L10.0386 3.03781H9.93177L9.92615 3.03225H9.59997C9.80242 2.33677 10.1286 1.79152 10.5167 1.37423C11.3265 0.389442 12.4625 0.0500501 13.2836 0.00553968C14.0485 -0.0334069 15.1676 0.116816 16.0618 0.862365C16.6917 1.39093 17.2259 2.2255 17.4678 3.52742L21.8488 25.7826Z" clip-rule="evenodd"/><path fill="url(#paint4_linear_1_60)" fill-rule="evenodd" d="M31.0719 26.4614C31.3138 27.7689 31.848 28.6035 32.4779 29.132C34.4069 30.74 38.0568 30.1446 38.9622 27.0456C38.0343 27.0456 37.2751 26.1109 37.0389 25.2763C36.1447 22.1161 34.4856 12.3906 34.4856 12.3906L33.0291 4.98514C32.1574 4.04486 31.2069 3.46622 30.1552 3.32713C29.1373 3.1936 27.9901 3.46622 26.6909 4.21177L31.0719 26.4614Z" clip-rule="evenodd"/><path fill="url(#paint5_linear_1_60)" fill-rule="evenodd" d="M12.2769 16.1517H0V11.1331H11.2871L11.3546 11.4948L11.529 12.3572L12.0632 15.0723L12.2769 16.1517Z" clip-rule="evenodd"/><path fill="url(#paint6_linear_1_60)" fill-rule="evenodd" d="M1.17538 3.01556C1.17538 3.01556 6.29874 3.28819 8.96446 5.90874C10.3086 7.22736 10.8991 9.68099 10.8991 9.68099H5.61825C5.61825 9.68099 4.53846 8.76296 3.18873 8.44026C1.75464 8.10087 0.00561523 8.10087 0.00561523 8.10087L1.17538 3.01556Z" clip-rule="evenodd"/><path fill="#fff" fill-rule="evenodd" d="M81.192 25.0037V3.88352H76.1305L70.5179 12.8134L64.9052 3.88352H59.8438V25.0037H64.4778V11.3056L70.4279 20.2355H70.5516L76.5579 11.211V25.0037H81.192ZM107.118 25.0037L97.968 3.73329H93.6376L84.4876 25.0093H89.2791L91.2306 20.2689H100.257L102.208 25.0093H107.118V25.0037ZM98.5754 16.1628H92.9009L95.7354 9.31378L98.5698 16.1628H98.5754ZM125.846 18.7556V18.6943C125.846 17.7708 125.699 16.9751 125.401 16.313C125.109 15.651 124.665 15.0723 124.085 14.5771C123.506 14.082 122.792 13.6591 121.943 13.3086C121.099 12.9581 120.132 12.6409 119.052 12.3572C118.135 12.1179 117.382 11.9065 116.774 11.7229C116.173 11.5393 115.7 11.3501 115.351 11.1498C115.008 10.9495 114.767 10.7214 114.637 10.4711C114.508 10.2207 114.44 9.92024 114.44 9.58085V9.51965C114.44 8.99665 114.671 8.55711 115.127 8.20659C115.582 7.85607 116.268 7.67803 117.185 7.67803C118.102 7.67803 119.013 7.86163 119.929 8.23441C120.846 8.60718 121.78 9.11349 122.736 9.75889L125.176 6.25926C124.08 5.39687 122.871 4.72921 121.56 4.26742C120.25 3.80562 118.81 3.57194 117.247 3.57194C116.15 3.57194 115.143 3.72217 114.232 4.02261C113.321 4.32306 112.534 4.75703 111.876 5.31898C111.218 5.88092 110.712 6.54858 110.346 7.32751C109.986 8.10088 109.801 8.97439 109.801 9.93693V9.99813C109.801 11.0441 109.969 11.9176 110.301 12.6242C110.639 13.3308 111.117 13.915 111.724 14.388C112.331 14.8609 113.079 15.2559 113.957 15.5786C114.834 15.9013 115.813 16.1906 116.892 16.4521C117.787 16.6747 118.518 16.8861 119.08 17.0864C119.637 17.2867 120.076 17.487 120.396 17.6929C120.711 17.8932 120.925 18.1102 121.037 18.3438C121.15 18.5775 121.206 18.839 121.206 19.145V19.2062C121.206 19.8294 120.936 20.319 120.396 20.6695C119.856 21.02 119.103 21.1981 118.124 21.1981C116.904 21.1981 115.779 20.9644 114.755 20.5026C113.726 20.0408 112.725 19.4176 111.752 18.6331L108.98 21.9214C110.262 23.0675 111.685 23.9188 113.248 24.4696C114.812 25.0204 116.409 25.2986 118.04 25.2986C119.198 25.2986 120.255 25.1539 121.206 24.859C122.156 24.5697 122.977 24.1469 123.669 23.5905C124.361 23.0341 124.89 22.3553 125.278 21.5374C125.66 20.7251 125.851 19.7904 125.851 18.7444L125.846 18.7556ZM146.097 8.16208V3.88352H128.404V8.16764H134.9V25.0037H139.596V8.16764H146.092L146.097 8.16208ZM165.921 24.9981V20.8642H154.331V16.4299H164.397V12.296H154.331V8.01186H165.77V3.88352H149.696V25.0037H165.921V24.9981ZM188.586 24.9981L183.372 17.4536C184.733 16.9529 185.836 16.1628 186.679 15.0834C187.523 14.0096 187.945 12.6131 187.945 10.905V10.8438C187.945 8.65169 187.236 6.94361 185.824 5.71401C184.413 4.48441 182.433 3.87239 179.891 3.87239H170.134V25.0037H174.83V18.2437H178.519L183.097 25.0037H188.586V24.9981ZM183.187 11.1498C183.187 12.0567 182.877 12.78 182.259 13.3253C181.64 13.8705 180.752 14.1376 179.587 14.1376H174.83V8.07862H179.497C180.656 8.07862 181.561 8.32899 182.214 8.8353C182.866 9.33604 183.192 10.0927 183.192 11.0998V11.161L183.187 11.1498ZM209.085 11.2389V11.1777C209.085 10.0927 208.899 9.10236 208.522 8.20659C208.145 7.31082 207.606 6.54301 206.908 5.89761C206.205 5.25221 205.35 4.75703 204.344 4.40651C203.337 4.05599 202.195 3.87795 200.913 3.87795H192.191V25.0037H196.886V18.6665H200.458C201.656 18.6665 202.78 18.5107 203.826 18.1992C204.872 17.8876 205.789 17.4202 206.571 16.7971C207.353 16.1739 207.971 15.4006 208.415 14.4714C208.865 13.5478 209.085 12.4685 209.085 11.2444V11.2389ZM204.327 11.3279C204.327 12.2348 204.001 12.9915 203.348 13.6035C202.696 14.2155 201.785 14.5215 200.604 14.5215H196.881V8.07862H200.508C201.689 8.07862 202.617 8.35125 203.298 8.89094C203.978 9.43619 204.321 10.2262 204.321 11.2722V11.3334L204.327 11.3279ZM234.308 14.438V14.3768C234.308 12.8691 234.027 11.4558 233.47 10.1372C232.913 8.81861 232.126 7.67246 231.119 6.6988C230.112 5.72513 228.92 4.9462 227.537 4.37313C226.153 3.80006 224.64 3.51074 222.993 3.51074C221.345 3.51074 219.826 3.7945 218.432 4.37313C217.037 4.9462 215.839 5.7307 214.832 6.72662C213.826 7.72254 213.038 8.87981 212.47 10.1984C211.902 11.517 211.615 12.9303 211.615 14.438V14.4992C211.615 16.007 211.897 17.4202 212.453 18.7389C213.01 20.0575 213.798 21.2036 214.804 22.1773C215.811 23.151 217.003 23.9299 218.387 24.503C219.77 25.076 221.283 25.3653 222.931 25.3653C224.578 25.3653 226.097 25.076 227.492 24.503C228.886 23.9299 230.084 23.1454 231.091 22.1495C232.098 21.1535 232.885 19.9963 233.453 18.6777C234.021 17.359 234.308 15.9458 234.308 14.438ZM229.398 14.4992C229.398 15.4061 229.241 16.2518 228.926 17.0475C228.611 17.8431 228.172 18.5386 227.615 19.145C227.059 19.7459 226.378 20.2188 225.585 20.5638C224.792 20.9087 223.926 21.0757 222.993 21.0757C222.059 21.0757 221.165 20.8976 220.383 20.5471C219.601 20.1966 218.921 19.7181 218.342 19.1116C217.762 18.5107 217.312 17.8041 216.997 16.9974C216.683 16.1906 216.525 15.3394 216.525 14.4325V14.3713C216.525 13.4644 216.683 12.6187 216.997 11.8231C217.312 11.0274 217.751 10.332 218.308 9.72551C218.865 9.12461 219.539 8.65169 220.321 8.30674C221.103 7.96735 221.975 7.79487 222.931 7.79487C223.887 7.79487 224.73 7.97291 225.523 8.32343C226.316 8.67395 227.002 9.15243 227.582 9.75889C228.161 10.3653 228.611 11.0664 228.926 11.8731C229.241 12.6799 229.398 13.5311 229.398 14.438V14.4992ZM243.396 24.9981V3.88352H238.7V25.0037H243.396V24.9981ZM267.708 24.9981V3.88352H263.074V16.8861L253.069 3.87795H248.739V25.0037H253.373V11.5782L263.715 25.0093H267.708V24.9981ZM289 8.16208V3.88352H271.307V8.16764H277.803V25.0037H282.499V8.16764H288.994L289 8.16208Z" clip-rule="evenodd"/></g><defs><linearGradient id="paint0_linear_1_60" x1="24.222" x2="36.379" y1="0" y2="27.916" gradientUnits="userSpaceOnUse"><stop stop-color="#EDE497"/><stop offset=".443" stop-color="#2AD9C2"/><stop offset="1" stop-color="#D891CE"/></linearGradient><linearGradient id="paint1_linear_1_60" x1="24.222" x2="36.379" y1="0" y2="27.916" gradientUnits="userSpaceOnUse"><stop stop-color="#EDE497"/><stop offset=".443" stop-color="#2AD9C2"/><stop offset="1" stop-color="#D891CE"/></linearGradient><linearGradient id="paint2_linear_1_60" x1="24.222" x2="36.379" y1="0" y2="27.916" gradientUnits="userSpaceOnUse"><stop stop-color="#EDE497"/><stop offset=".443" stop-color="#2AD9C2"/><stop offset="1" stop-color="#D891CE"/></linearGradient><linearGradient id="paint3_linear_1_60" x1="24.222" x2="36.379" y1="0" y2="27.916" gradientUnits="userSpaceOnUse"><stop stop-color="#EDE497"/><stop offset=".443" stop-color="#2AD9C2"/><stop offset="1" stop-color="#D891CE"/></linearGradient><linearGradient id="paint4_linear_1_60" x1="24.222" x2="36.379" y1="0" y2="27.916" gradientUnits="userSpaceOnUse"><stop stop-color="#EDE497"/><stop offset=".443" stop-color="#2AD9C2"/><stop offset="1" stop-color="#D891CE"/></linearGradient><linearGradient id="paint5_linear_1_60" x1="24.222" x2="36.379" y1="0" y2="27.916" gradientUnits="userSpaceOnUse"><stop stop-color="#EDE497"/><stop offset=".443" stop-color="#2AD9C2"/><stop offset="1" stop-color="#D891CE"/></linearGradient><linearGradient id="paint6_linear_1_60" x1="24.222" x2="36.379" y1="0" y2="27.916" gradientUnits="userSpaceOnUse"><stop stop-color="#EDE497"/><stop offset=".443" stop-color="#2AD9C2"/><stop offset="1" stop-color="#D891CE"/></linearGradient><clipPath id="clip0_1_60"><rect width="289" height="30" fill="#fff"/></clipPath></defs></svg>

<svg xmlns="http://www.w3.org/2000/svg" fill="none" viewBox="0 0 289 30"><g fill-rule="evenodd" clip-path="url(#a)" clip-rule="evenodd"><path fill="url(#b)" d="M47.269 26.984s-5.124-.272-7.79-2.893c-1.343-1.318-1.934-3.772-1.934-3.772h5.286s1.08.918 2.43 1.24c1.434.34 3.183.34 3.183.34L47.27 26.99z"/><path fill="url(#c)" d="M23.345 25.81 19.037 3.912c-.208-1.135.062-2.999 2.446-3.127 1.316-.072 3.195.468 3.825 3.534v.022l4.38 22.25c-1.304.745-2.451 1.018-3.464.884-1.052-.14-2.002-.718-2.874-1.658z"/><path fill="url(#d)" d="m37.258 18.867-.073-.362-.169-.862-.748-3.8h12.176v5.024z"/><path fill="url(#e)" d="M21.849 25.783c-1.305.745-2.452 1.018-3.465.884-1.051-.139-2.002-.718-2.873-1.658l-1.457-7.405-.169-.863-1.012-5.118-.264-1.352-.118-.59s-.619-3.756-.996-4.963c-.275-.89-.82-1.441-1.383-1.658H10.1l-.006-.006h-.011l-.006-.005h-.011l-.006-.006h-.011l-.011-.005h-.107l-.006-.006H9.6c.202-.695.529-1.24.917-1.658C11.327.39 12.463.05 13.284.006c.765-.04 1.884.11 2.778.856.63.529 1.164 1.363 1.406 2.665z"/><path fill="url(#f)" d="M31.072 26.461c.242 1.308.776 2.143 1.406 2.671 1.929 1.608 5.579 1.013 6.484-2.086-.928 0-1.687-.935-1.923-1.77-.894-3.16-2.553-12.885-2.553-12.885l-1.457-7.406c-.872-.94-1.822-1.519-2.874-1.658-1.018-.133-2.165.14-3.464.885z"/><path fill="url(#g)" d="M12.277 16.152H0v-5.019h11.287l.068.362.174.862.534 2.715z"/><path fill="url(#h)" d="M1.175 3.016s5.124.272 7.79 2.893c1.344 1.318 1.934 3.772 1.934 3.772H5.62s-1.08-.918-2.43-1.24C1.755 8.1.006 8.1.006 8.1z"/><path fill="#fff" d="M81.192 25.004V3.884h-5.061l-5.613 8.93-5.613-8.93h-5.061v21.12h4.634V11.306l5.95 8.93h.124l6.006-9.025v13.793zm25.926 0-9.15-21.27h-4.33l-9.15 21.275h4.791l1.952-4.74h9.026l1.951 4.74h4.91zm-8.543-8.841h-5.674l2.834-6.85 2.835 6.85zm27.271 2.593v-.062q.001-1.386-.445-2.381a4.85 4.85 0 0 0-1.316-1.736q-.868-.743-2.142-1.268a22.5 22.5 0 0 0-2.891-.952 64 64 0 0 1-2.278-.634q-.9-.274-1.423-.573c-.343-.2-.584-.429-.714-.679a1.9 1.9 0 0 1-.197-.89V9.52q.001-.786.687-1.313.683-.527 2.058-.529c1.375-.002 1.828.184 2.744.556q1.374.558 2.807 1.525l2.44-3.5a12.6 12.6 0 0 0-3.616-1.992q-1.967-.693-4.313-.695-1.647 0-3.015.45-1.368.453-2.356 1.297a5.9 5.9 0 0 0-1.53 2.009c-.36.773-.545 1.646-.545 2.609v.061q.001 1.568.5 2.626c.338.707.816 1.291 1.423 1.764s1.355.868 2.233 1.19q1.316.484 2.935.874 1.344.334 2.188.634.836.299 1.316.607.473.3.641.65c.113.235.169.496.169.802v.061q0 .936-.81 1.463c-.54.351-1.293.53-2.272.53-1.22 0-2.345-.235-3.369-.696a13.8 13.8 0 0 1-3.003-1.87l-2.772 3.288a12.7 12.7 0 0 0 4.268 2.549 14.3 14.3 0 0 0 4.792.829q1.738.001 3.166-.44 1.425-.434 2.463-1.269a5.74 5.74 0 0 0 1.609-2.053c.382-.812.573-1.747.573-2.793zm20.251-10.594V3.884h-17.693v4.284h6.496v16.836h4.696V8.168h6.496zm19.824 16.836v-4.134h-11.59V16.43h10.066v-4.134h-10.066V8.012h11.439V3.884h-16.074v21.12h16.225zm22.665 0-5.214-7.544q2.042-.751 3.307-2.37c.844-1.074 1.266-2.47 1.266-4.179v-.061q-.001-3.286-2.121-5.13-2.118-1.844-5.933-1.842h-9.757v21.132h4.696v-6.76h3.689l4.578 6.76h5.489zm-5.399-13.848q0 1.359-.928 2.175c-.619.546-1.507.813-2.672.813h-4.757v-6.06h4.667q1.738-.001 2.717.757.978.753.978 2.265v.061zm25.898.089v-.061q.001-1.628-.563-2.971a6.6 6.6 0 0 0-1.614-2.31q-1.055-.966-2.564-1.49-1.51-.528-3.431-.53h-8.722v21.127h4.695v-6.338h3.572q1.798 0 3.368-.467t2.745-1.402a6.54 6.54 0 0 0 1.844-2.326c.45-.923.67-2.002.67-3.227zm-4.758.089q0 1.36-.979 2.276c-.652.612-1.563.918-2.744.918h-3.723V8.079h3.627q1.77.001 2.79.812c.68.545 1.023 1.335 1.023 2.381v.061zm29.981 3.11v-.061q-.001-2.262-.838-4.24a10.3 10.3 0 0 0-2.351-3.438 11.3 11.3 0 0 0-3.582-2.326q-2.075-.86-4.544-.862c-1.648 0-3.167.284-4.561.862q-2.091.86-3.6 2.354a10.9 10.9 0 0 0-2.362 3.471 10.6 10.6 0 0 0-.855 4.24v.061c0 1.508.282 2.921.838 4.24a10.3 10.3 0 0 0 2.351 3.438 11.3 11.3 0 0 0 3.583 2.326q2.073.86 4.544.862 2.47-.001 4.561-.862 2.09-.86 3.599-2.354a10.9 10.9 0 0 0 2.362-3.471q.854-1.978.855-4.24m-4.91.061a6.8 6.8 0 0 1-.472 2.548 6.7 6.7 0 0 1-1.311 2.098 6 6 0 0 1-2.03 1.419c-.793.345-1.659.512-2.592.512-.934 0-1.828-.178-2.61-.529a6.4 6.4 0 0 1-2.041-1.435 6.3 6.3 0 0 1-1.345-2.115 7 7 0 0 1-.472-2.565v-.06c0-.908.158-1.753.472-2.549a6.7 6.7 0 0 1 1.311-2.097 6 6 0 0 1 2.013-1.42q1.174-.51 2.61-.511a6.3 6.3 0 0 1 2.592.528 6.4 6.4 0 0 1 3.403 3.55c.315.807.472 1.658.472 2.565zM243.396 25V3.883H238.7v21.12h4.696zm24.312 0V3.883h-4.634v13.002L253.069 3.878h-4.33v21.126h4.634V11.578l10.342 13.431h3.993zM289 8.161V3.884h-17.693v4.284h6.496v16.836h4.696V8.168h6.495z"/></g><defs><linearGradient id="b" x1="24.222" x2="36.379" y1="0" y2="27.916" gradientUnits="userSpaceOnUse"><stop stop-color="#EDE497"/><stop offset=".443" stop-color="#2AD9C2"/><stop offset="1" stop-color="#D891CE"/></linearGradient><linearGradient id="c" x1="24.222" x2="36.379" y1="0" y2="27.916" gradientUnits="userSpaceOnUse"><stop stop-color="#EDE497"/><stop offset=".443" stop-color="#2AD9C2"/><stop offset="1" stop-color="#D891CE"/></linearGradient><linearGradient id="d" x1="24.222" x2="36.379" y1="0" y2="27.916" gradientUnits="userSpaceOnUse"><stop stop-color="#EDE497"/><stop offset=".443" stop-color="#2AD9C2"/><stop offset="1" stop-color="#D891CE"/></linearGradient><linearGradient id="e" x1="24.222" x2="36.379" y1="0" y2="27.916" gradientUnits="userSpaceOnUse"><stop stop-color="#EDE497"/><stop offset=".443" stop-color="#2AD9C2"/><stop offset="1" stop-color="#D891CE"/></linearGradient><linearGradient id="f" x1="24.222" x2="36.379" y1="0" y2="27.916" gradientUnits="userSpaceOnUse"><stop stop-color="#EDE497"/><stop offset=".443" stop-color="#2AD9C2"/><stop offset="1" stop-color="#D891CE"/></linearGradient><linearGradient id="g" x1="24.222" x2="36.379" y1="0" y2="27.916" gradientUnits="userSpaceOnUse"><stop stop-color="#EDE497"/><stop offset=".443" stop-color="#2AD9C2"/><stop offset="1" stop-color="#D891CE"/></linearGradient><linearGradient id="h" x1="24.222" x2="36.379" y1="0" y2="27.916" gradientUnits="userSpaceOnUse"><stop stop-color="#EDE497"/><stop offset=".443" stop-color="#2AD9C2"/><stop offset="1" stop-color="#D891CE"/></linearGradient><clipPath id="a"><path fill="#fff" d="M0 0h289v30H0z"/></clipPath></defs></svg>
